X: 20802
M: 2/4
L: 1/16
K: C
V: 1 name="2"
ef |\
g4 agec | d4 edcB |\
c2cB c2d2 | e2f2 g2e2 |\
g4 f2d2 | a4 g2ed |
cBAG ^FGAB | c2e2c2 H|]\


